src/asset/img/icon/item_category/item0.svg

<svg xmlns:xlink="http://www.w3.org/1999/xlink" height="14.6" width="25" xmlns="http://www.w3.org/2000/svg"><use height="52.65" transform="matrix(.2783 0 0 .2775 .024 -.018)" width="89.8" xlink:href="#a"/><defs><use height="52.65" width="89.8" xlink:href="#b" id="a"/><g id="b" fill="#3f5a75" fill-rule="evenodd"><path d="M55.3 19.35q-1.35-1.1-3.1-1.1.8 2.55 3.35 4.3l1.55.95q2.2 2.8 3.35 5.35l2.35 3.9q1.55 1.55 3.9 1.4-.95 0-2.75-3.95l-2.35-4.7q-1.95-3.3-3.1-4.5-1.45-1.45-3.2-1.65m-4.05 4.2q-5.1-4.7-3.95-9.2 9.25-.4 17.25 10.4Q72 34.3 72.95 43.9q.8 10-7.2 17.05Q57.9 67.4 47.7 67q-13.3-.5-19.45-9.7-6.3 9.2-19.9 9.7-10 .4-17.8-6.05-8.25-7.05-7.25-17.05.8-9.6 8.2-19.15 8.05-10.8 17.25-10.4 1.35 4.5-3.9 9.2-5.9 5.3-6.1 7.85 4.3-1.4 10.4-.6 5.85.6 9.8 2.75 4.45 2.3 7.3 4.9h2.1l1.55.1q2.8-2.65 7.25-5 4.1-2.15 9.8-2.75 6.05-.8 10.35.6-.2-2.75-6.05-7.85m-18.3 28.7q.4 4.55 6.35 6.95 9.2 3.7 19.55-.6 11-4.5 8.45-13.3-1.15-4.25-4.1-6.55-1.95-5.4-11.55-5.8-8.85-.4-14.9 2.55-3.8 1.8-5.35 4.8l-.15.1-.1.15q-9.2-3.2-6.75 4.55 2.7 7.85 6.65 4.5.65 1.55 1.9 2.65M.1 22.55l1.6-.95q2.75-1.75 3.35-4.3-1.7 0-3 1.05-1.75.15-3.3 1.7-1.15 1.15-3.1 4.5-4.35 8.8-5.3 8.8l.55.05q-2.9 1.05-3.15 3.35-3.9 3.2-3.5 8.95.5 6.2 6.25 7.75 2.15 3.05 7.3 5.15 10.35 4.3 19.55.6 8.85-3.35 5.5-11.95-1.7-4.2-5.2-6.85l-.3-1.55q-1.55-6.1-11.75-6.5-7.75-.35-13.4 1.9l-.3-.95q1.5-.3 2.55-1.5l2.35-3.95q1.05-2.35 3.3-5.3" fill-opacity=".953" transform="translate(16.8 -14.35)"/><path d="M57.1 23.5q1.7.85 3.55 1.25L56.9 20.4l-.75-.2-.85-.85q1.75.2 3.2 1.65 1.15 1.2 3.1 4.5l2.35 4.7q1.8 3.95 2.75 3.95-2.35.15-3.9-1.4l-2.35-3.9Q59.3 26.3 57.1 23.5M2.05 18.35l-.95.9-.75.2-3.75 4.3q1.85-.4 3.5-1.2-2.25 2.95-3.3 5.3l-2.35 3.95Q-6.6 33-8.1 33.3l-1 .1-.55-.05q.95 0 5.3-8.8 1.95-3.35 3.1-4.5 1.55-1.55 3.3-1.7" fill-opacity=".282" transform="translate(16.8 -14.35)"/><path d="M32.95 52.25q-1.25-1.1-1.9-2.65-3.95 3.35-6.65-4.5-2.45-7.75 6.75-4.55-.6 1.15-.25 3.15 2.5-.2 3.9-2.15 1.15-1.95-.4-3.3l-.4.6q-1.8.7-2.6 1.45 1.55-3 5.35-4.8 6.05-2.95 14.9-2.55 9.6.4 11.55 5.8-4.25-3.3-12.35-2.45-13.1 1.35-17.05 10.95-1.1 2.75-.85 5m-40.75-18q5.65-2.25 13.4-1.9 10.2.4 11.75 6.5l.3 1.55q-4.5-3.35-11.85-4.1-13.7-1.4-16.45 9Q-12 50-9.5 53.45q-5.75-1.55-6.25-7.75-.4-5.75 3.5-8.95l.05 1.3q2.55 0 3.9-1.95.6-.95.5-1.85" fill-opacity=".8" transform="translate(16.8 -14.35)"/><path d="M59.05 39.4q-2.7-2.15-7.2-2.15-4.15.2-7.65 1.75-2.75 1-5.7 4.15-3.7 3.7-.6 5.45 3.15 1.95 12.35-3.5 4.5-2.75 8.8-5.7m4.15-.65q2.95 2.3 4.1 6.55 2.55 8.8-8.45 13.3-10.35 4.3-19.55.6-5.95-2.4-6.35-6.95-.25-2.25.85-5 3.95-9.6 17.05-10.95 8.1-.85 12.35 2.45m2.55 6.75q-1.2.55-3.35 2.55-1.95 2.35-3.55 2.9-3.9 1.95-10.55 2.75l-10.55 1.55Q43 59.95 52.6 59.6q3.95 0 7.05-2.55 6.45-4.3 6.1-11.55m-48.1-5.1q3.5 2.65 5.2 6.85 3.35 8.6-5.5 11.95-9.2 3.7-19.55-.6-5.15-2.1-7.3-5.15Q-12 50-10.65 45.3q2.75-10.4 16.45-9 7.35.75 11.85 4.1m-7.35-.2q-3.9-1.95-7.05-2.35-3.7-.8-7.4 1Q-8.3 41-8.5 44.5q-.35 5.3 11.95 5.5 12.15.2 12.55-3.55.2-3.7-5.7-6.25M7.95 60.7l4.15-.35q4.85-.95 7.8-3.3 3.55-2.95 2.15-7.45Q19.7 49 16 51.75q-4.5 3.35-6.1 3.7l-8.4.8q-6.4 0-7.95-1.7 5.25 6.05 13.9 6.15l.3.05.2-.05" fill-opacity=".49" transform="translate(16.8 -14.35)"/><path d="M59.05 39.4q-4.3 2.95-8.8 5.7-9.2 5.45-12.35 3.5-3.1-1.75.6-5.45Q41.45 40 44.2 39q3.5-1.55 7.65-1.75 4.5 0 7.2 2.15m-13.1 1-3.15.95q-2.35 0-3.7 1.8-1.35 1.75-1 4.1 3.75.2 8.45-2.95 4.9-3.15-.6-3.9M.9 40.4q-2.55-1-5.85.95-3.75 2-1.4 4.7 1.6 1.8 6.3-.2 4.9-1.95 2.55-4.7L.9 40.4m9.4-.2q5.9 2.55 5.7 6.25Q15.6 50.2 3.45 50q-12.3-.2-11.95-5.5.2-3.5 4.35-5.65 3.7-1.8 7.4-1 3.15.4 7.05 2.35" fill-opacity=".224" transform="translate(16.8 -14.35)"/><path d="M65.75 45.5q.35 7.25-6.1 11.55-3.1 2.55-7.05 2.55-9.6.35-14.85-4.35L48.3 53.7q6.65-.8 10.55-2.75 1.6-.55 3.55-2.9 2.15-2 3.35-2.55M7.45 60.7q-8.65-.1-13.9-6.15 1.55 1.7 7.95 1.7l8.4-.8q1.6-.35 6.1-3.7 3.7-2.75 6.05-2.15 1.4 4.5-2.15 7.45-2.95 2.35-7.8 3.3l-4.15.35 5.3-1.7q1.95.4 3.15-.8 1.35-.95 1.15-3.1-3.1.15-12.7 4.7.5.5 2.6.9M62 51.75q-9.6 1.35-13.9 4.5v1.2q11.95 3.1 13.9-5.7" fill-opacity=".702" transform="translate(16.8 -14.35)"/><path d="M7.45 60.7q-2.1-.4-2.6-.9 9.6-4.55 12.7-4.7.2 2.15-1.15 3.1-1.2 1.2-3.15.8l-5.3 1.7-.2.05-.3-.05M62 51.75q-1.95 8.8-13.9 5.7v-1.2q4.3-3.15 13.9-4.5" fill-opacity=".733" transform="translate(16.8 -14.35)"/></g></defs></svg>

<?xml version="1.0" encoding="UTF-8" standalone="no"?>
<svg xmlns:xlink="http://www.w3.org/1999/xlink" height="14.6px" width="25.0px" xmlns="http://www.w3.org/2000/svg">
  <g transform="matrix(1.0, 0.0, 0.0, 1.0, -0.3, -4.0)">
    <use height="52.65" transform="matrix(0.2783, 0.0, 0.0, 0.2775, 0.3242, 3.9816)" width="89.8" xlink:href="#sprite0"/>
  </g>
  <defs>
    <g id="sprite0" transform="matrix(1.0, 0.0, 0.0, 1.0, 16.8, -14.35)">
      <use height="52.65" transform="matrix(1.0, 0.0, 0.0, 1.0, -16.8, 14.35)" width="89.8" xlink:href="#shape0"/>
    </g>
    <g id="shape0" transform="matrix(1.0, 0.0, 0.0, 1.0, 16.8, -14.35)">
      <path d="M55.3 19.35 Q53.95 18.25 52.2 18.25 53.0 20.8 55.55 22.55 L57.1 23.5 Q59.3 26.3 60.45 28.85 L62.8 32.75 Q64.35 34.3 66.7 34.15 65.75 34.15 63.95 30.2 L61.6 25.5 Q59.65 22.2 58.5 21.0 57.05 19.55 55.3 19.35 M51.25 23.55 Q46.15 18.85 47.3 14.35 56.55 13.95 64.55 24.75 72.0 34.3 72.95 43.9 73.75 53.9 65.75 60.95 57.9 67.4 47.7 67.0 34.4 66.5 28.25 57.3 21.95 66.5 8.35 67.0 -1.65 67.4 -9.45 60.95 -17.7 53.9 -16.7 43.9 -15.9 34.3 -8.5 24.75 -0.45 13.95 8.75 14.35 10.1 18.85 4.85 23.55 -1.05 28.85 -1.25 31.4 3.05 30.0 9.15 30.8 15.0 31.4 18.95 33.55 23.4 35.85 26.25 38.45 L28.35 38.45 29.9 38.55 Q32.7 35.9 37.15 33.55 41.25 31.4 46.95 30.8 53.0 30.0 57.3 31.4 57.1 28.65 51.25 23.55 M32.95 52.25 Q33.35 56.8 39.3 59.2 48.5 62.9 58.85 58.6 69.85 54.1 67.3 45.3 66.15 41.05 63.2 38.75 61.25 33.35 51.65 32.95 42.8 32.55 36.75 35.5 32.95 37.3 31.4 40.3 L31.25 40.4 31.15 40.55 Q21.95 37.35 24.4 45.1 27.1 52.95 31.05 49.6 31.7 51.15 32.95 52.25 M0.1 22.55 L1.7 21.6 Q4.45 19.85 5.05 17.3 3.35 17.3 2.05 18.35 0.3 18.5 -1.25 20.05 -2.4 21.2 -4.35 24.55 -8.7 33.35 -9.65 33.35 L-9.1 33.4 Q-12.0 34.45 -12.25 36.75 -16.15 39.95 -15.75 45.7 -15.25 51.9 -9.5 53.45 -7.35 56.5 -2.2 58.6 8.15 62.9 17.35 59.2 26.2 55.85 22.85 47.25 21.15 43.05 17.65 40.4 L17.35 38.85 Q15.8 32.75 5.6 32.35 -2.15 32.0 -7.8 34.25 L-8.1 33.3 Q-6.6 33.0 -5.55 31.8 L-3.2 27.85 Q-2.15 25.5 0.1 22.55" fill="#3f5a75" fill-opacity="0.9529412" fill-rule="evenodd" stroke="none"/>
      <path d="M57.1 23.5 Q58.8 24.35 60.65 24.75 L56.9 20.4 56.15 20.2 55.3 19.35 Q57.05 19.55 58.5 21.0 59.65 22.2 61.6 25.5 L63.95 30.2 Q65.75 34.15 66.7 34.15 64.35 34.3 62.8 32.75 L60.45 28.85 Q59.3 26.3 57.1 23.5 M2.05 18.35 L1.1 19.25 0.35 19.45 -3.4 23.75 Q-1.55 23.35 0.1 22.55 -2.15 25.5 -3.2 27.85 L-5.55 31.8 Q-6.6 33.0 -8.1 33.3 L-9.1 33.4 -9.65 33.35 Q-8.7 33.35 -4.35 24.55 -2.4 21.2 -1.25 20.05 0.3 18.5 2.05 18.35" fill="#3f5a75" fill-opacity="0.28235295" fill-rule="evenodd" stroke="none"/>
      <path d="M32.95 52.25 Q31.7 51.15 31.05 49.6 27.1 52.95 24.4 45.1 21.95 37.35 31.15 40.55 30.55 41.7 30.9 43.7 33.4 43.5 34.8 41.55 35.95 39.6 34.4 38.25 L34.0 38.85 Q32.2 39.55 31.4 40.3 32.95 37.3 36.75 35.5 42.8 32.55 51.65 32.95 61.25 33.35 63.2 38.75 58.95 35.45 50.85 36.3 37.75 37.65 33.8 47.25 32.7 50.0 32.95 52.25 M-7.8 34.25 Q-2.15 32.0 5.6 32.35 15.8 32.75 17.35 38.85 L17.65 40.4 Q13.15 37.05 5.8 36.3 -7.9 34.9 -10.65 45.3 -12.0 50.0 -9.5 53.45 -15.25 51.9 -15.75 45.7 -16.15 39.95 -12.25 36.75 L-12.2 38.05 Q-9.65 38.05 -8.3 36.1 -7.7 35.15 -7.8 34.25" fill="#3f5a75" fill-opacity="0.8" fill-rule="evenodd" stroke="none"/>
      <path d="M59.05 39.4 Q56.35 37.25 51.85 37.25 47.7 37.45 44.2 39.0 41.45 40.0 38.5 43.15 34.8 46.85 37.9 48.6 41.05 50.55 50.25 45.1 54.75 42.35 59.05 39.4 M63.2 38.75 Q66.15 41.05 67.3 45.3 69.85 54.1 58.85 58.6 48.5 62.9 39.3 59.2 33.35 56.8 32.95 52.25 32.7 50.0 33.8 47.25 37.75 37.65 50.85 36.3 58.95 35.45 63.2 38.75 M65.75 45.5 Q64.55 46.05 62.4 48.05 60.45 50.4 58.85 50.95 54.95 52.9 48.3 53.7 L37.75 55.25 Q43.0 59.95 52.6 59.6 56.55 59.6 59.65 57.05 66.1 52.75 65.75 45.5 M17.65 40.4 Q21.15 43.05 22.85 47.25 26.2 55.85 17.35 59.2 8.15 62.9 -2.2 58.6 -7.35 56.5 -9.5 53.45 -12.0 50.0 -10.65 45.3 -7.9 34.9 5.8 36.3 13.15 37.05 17.65 40.4 M10.3 40.2 Q6.4 38.25 3.25 37.85 -0.45 37.05 -4.15 38.85 -8.3 41.0 -8.5 44.5 -8.85 49.8 3.45 50.0 15.6 50.2 16.0 46.45 16.2 42.75 10.3 40.2 M7.95 60.7 L12.1 60.35 Q16.95 59.4 19.9 57.05 23.45 54.1 22.05 49.6 19.7 49.0 16.0 51.75 11.5 55.1 9.9 55.45 L1.5 56.25 Q-4.9 56.25 -6.45 54.55 -1.2 60.6 7.45 60.7 L7.75 60.75 7.95 60.7" fill="#3f5a75" fill-opacity="0.49019608" fill-rule="evenodd" stroke="none"/>
      <path d="M59.05 39.4 Q54.75 42.35 50.25 45.1 41.05 50.55 37.9 48.6 34.8 46.85 38.5 43.15 41.45 40.0 44.2 39.0 47.7 37.45 51.85 37.25 56.35 37.25 59.05 39.4 M45.95 40.4 L42.8 41.35 Q40.45 41.35 39.1 43.15 37.75 44.9 38.1 47.25 41.85 47.45 46.55 44.3 51.45 41.15 45.95 40.4 M0.9 40.4 Q-1.65 39.4 -4.95 41.35 -8.7 43.35 -6.35 46.05 -4.75 47.85 -0.05 45.85 4.85 43.9 2.5 41.15 L0.9 40.4 M10.3 40.2 Q16.2 42.75 16.0 46.45 15.6 50.2 3.45 50.0 -8.85 49.8 -8.5 44.5 -8.3 41.0 -4.15 38.85 -0.45 37.05 3.25 37.85 6.4 38.25 10.3 40.2" fill="#3f5a75" fill-opacity="0.22352941" fill-rule="evenodd" stroke="none"/>
      <path d="M65.75 45.5 Q66.1 52.75 59.65 57.05 56.55 59.6 52.6 59.6 43.0 59.95 37.75 55.25 L48.3 53.7 Q54.95 52.9 58.85 50.95 60.45 50.4 62.4 48.05 64.55 46.05 65.75 45.5 M7.45 60.7 Q-1.2 60.6 -6.45 54.55 -4.9 56.25 1.5 56.25 L9.9 55.45 Q11.5 55.1 16.0 51.75 19.7 49.0 22.05 49.6 23.45 54.1 19.9 57.05 16.95 59.4 12.1 60.35 L7.95 60.7 13.25 59.0 Q15.2 59.4 16.4 58.2 17.75 57.25 17.55 55.1 14.45 55.25 4.85 59.8 5.35 60.3 7.45 60.7 M62.0 51.75 Q52.4 53.1 48.1 56.25 L48.1 57.45 Q60.05 60.55 62.0 51.75" fill="#3f5a75" fill-opacity="0.7019608" fill-rule="evenodd" stroke="none"/>
      <path d="M7.45 60.7 Q5.35 60.3 4.85 59.8 14.45 55.25 17.55 55.1 17.75 57.25 16.4 58.2 15.2 59.4 13.25 59.0 L7.95 60.7 7.75 60.75 7.45 60.7 M62.0 51.75 Q60.05 60.55 48.1 57.45 L48.1 56.25 Q52.4 53.1 62.0 51.75" fill="#3f5a75" fill-opacity="0.73333335" fill-rule="evenodd" stroke="none"/>
    </g>
  </defs>
</svg>
